X:917
T:Sellenger's Round
C:John Playford, 1657
S:Colin Hume's website,  colinhume.com  - chords can also be printed below the stave.
%%stretchstaff 0
Q:3/8=116
M:6/8
R:Jig
L:1/8
K:C
P:A
|: z | "G7"G3 G>AB | "C"c3 c>de | "Dm"d2c "G7"B>AB | "C"c3- c2 :|
P:B
|: d | "Am"e3 e>dc | "Dm"d3- d2c | "G"B>cd d>cB | "D"A3 d2B |\
"Am"c>dc "G"B2G | "F"A>Bc "G"B2G | "Am"A2G "D7"^F>EF | "G"G3- G2 :|

